X:1
T:Ballad of Springhill
M:4/4
L:1/4
Z: Contributed 2016-05-21 23:40:03 by Rob Clothier robertclothier@bigpond.com
K:F
 z2 z D3/4 D/4| D A GF/2-E/2| D D C E| D F3/4 G/4 A c3/4 c/4| =B3/4 B/4 G A z/2 A/2|\
 d c3/4 c/4 =B =G3/4 G/4| c B A G3/4 E/4| D A G/4 G3/4 F/4- E3/4| D D C- E|\
 D A G/4 G3/4F/2-E/2| D C A,2|
